svg/u1f6a5.svg

<svg viewBox="0 0 128 128" xmlns="http://www.w3.org/2000/svg">
  <g>
    <path d="M4,83.05V44.95c0-5.26,4.27-9.53,9.53-9.53h100.94c5.26,0,9.53,4.27,9.53,9.53v38.11 c0,5.26-4.27,9.53-9.53,9.53H13.53C8.27,92.58,4,88.32,4,83.05z" fill="#424242"/>
    <circle cx="27.29" cy="65.26" r="13.41" fill="#4CAF50"/>
    <path d="M17.93,66.44c-1.14-0.36-1.45-4.36,1.22-7.57c3.98-4.79,9.71-4.67,10.32-2.12 c0.85,3.57-3.67,2.16-7.11,5.04C20.22,63.59,19.74,67,17.93,66.44z" fill="#6FD86F"/>
    <circle cx="64" cy="65.26" r="13.41" fill="#FFCA28"/>
    <path d="M54.64,66.45c-1.14-0.36-1.45-4.36,1.22-7.57c3.98-4.79,9.71-4.67,10.32-2.12 c0.85,3.57-3.67,2.16-7.11,5.04C56.92,63.6,56.45,67.01,54.64,66.45z" fill="#FFF59D"/>
    <circle cx="100.71" cy="65.26" r="13.41" fill="#F44336"/>
    <path d="M91.35,66.45c-1.14-0.36-1.45-4.36,1.22-7.57c3.98-4.79,9.71-4.67,10.32-2.12 c0.85,3.57-3.67,2.16-7.11,5.04C93.63,63.6,93.16,67.01,91.35,66.45z" fill="#FF8155"/>
    <path d="M12.77,58.77c-0.47,0.92-1.89,0.88-1.76-0.52c0.32-3.41,2.26-6.09,3.85-7.73 c3.16-3.32,7.8-5.21,12.43-5.2c4.63-0.02,9.27,1.88,12.44,5.19c1.59,1.64,3.85,5.3,3.86,7.85c0,1.11-1.26,1.41-1.72,0.51 c-1.15-2.24-4.71-9.55-14.57-9.55S13.91,56.55,12.77,58.77z" fill="#757575"/>
    <path d="M49.48,58.77c-0.47,0.92-1.89,0.88-1.76-0.52c0.32-3.41,2.26-6.09,3.85-7.73 c3.16-3.32,7.8-5.21,12.43-5.2c4.63-0.02,9.27,1.88,12.44,5.19c1.59,1.64,3.85,5.3,3.86,7.85c0,1.11-1.26,1.41-1.72,0.51 c-1.15-2.24-4.71-9.55-14.57-9.55S50.62,56.55,49.48,58.77z" fill="#757575"/>
    <path d="M86.18,58.77c-0.47,0.92-1.89,0.88-1.76-0.52c0.32-3.41,2.26-6.09,3.85-7.73 c3.16-3.32,7.8-5.21,12.43-5.2c4.63-0.02,9.27,1.88,12.44,5.19c1.59,1.64,3.85,5.3,3.86,7.85c0,1.11-1.26,1.41-1.72,0.51 c-1.15-2.24-4.71-9.55-14.57-9.55S87.33,56.55,86.18,58.77z" fill="#757575"/>
  </g>
</svg>

<svg viewBox="0 0 128 128" xmlns="http://www.w3.org/2000/svg">
  <defs/>
  <path d="M4,83.05 L4,44.95 C4,39.69 8.27,35.42 13.53,35.42 L114.47,35.42 C119.73,35.42 124,39.69 124,44.95 L124,83.06 C124,88.32 119.73,92.59 114.47,92.59 L13.53,92.59 C8.27,92.58 4,88.32 4,83.05 Z" fill="#424242"/>
  <path d="M40.7,65.26 A13.41 13.41 0 1 1 13.88,65.26 A13.41 13.41 0 1 1 40.7,65.26 Z" fill="#4CAF50"/>
  <path d="M17.93,66.44 C16.79,66.08 16.48,62.08 19.15,58.87 C23.13,54.08 28.86,54.2 29.47,56.75 C30.32,60.32 25.8,58.91 22.36,61.79 C20.22,63.59 19.74,67 17.93,66.44 Z" fill="#6FD86F"/>
  <path d="M77.41,65.26 A13.41 13.41 0 1 1 50.59,65.26 A13.41 13.41 0 1 1 77.41,65.26 Z" fill="#FFCA28"/>
  <path d="M54.64,66.45 C53.5,66.09 53.19,62.09 55.86,58.88 C59.84,54.09 65.57,54.21 66.18,56.76 C67.03,60.33 62.51,58.92 59.07,61.8 C56.92,63.6 56.45,67.01 54.64,66.45 Z" fill="#FFF59D"/>
  <path d="M114.12,65.26 A13.41 13.41 0 1 1 87.3,65.26 A13.41 13.41 0 1 1 114.12,65.26 Z" fill="#F44336"/>
  <path d="M91.35,66.45 C90.21,66.09 89.9,62.09 92.57,58.88 C96.55,54.09 102.28,54.21 102.89,56.76 C103.74,60.33 99.22,58.92 95.78,61.8 C93.63,63.6 93.16,67.01 91.35,66.45 Z" fill="#FF8155"/>
  <path d="M12.77,58.77 C12.3,59.69 10.88,59.65 11.01,58.25 C11.33,54.84 13.27,52.16 14.86,50.52 C18.02,47.2 22.66,45.31 27.29,45.32 C31.92,45.3 36.56,47.2 39.73,50.51 C41.32,52.15 43.58,55.81 43.59,58.36 C43.59,59.47 42.33,59.77 41.87,58.87 C40.72,56.63 37.16,49.32 27.3,49.32 C17.44,49.32 13.91,56.55 12.77,58.77 Z" fill="#757575"/>
  <path d="M49.48,58.77 C49.01,59.69 47.59,59.65 47.72,58.25 C48.04,54.84 49.98,52.16 51.57,50.52 C54.73,47.2 59.37,45.31 64,45.32 C68.63,45.3 73.27,47.2 76.44,50.51 C78.03,52.15 80.29,55.81 80.3,58.36 C80.3,59.47 79.04,59.77 78.58,58.87 C77.43,56.63 73.87,49.32 64.01,49.32 C54.15,49.32 50.62,56.55 49.48,58.77 Z" fill="#757575"/>
  <path d="M86.18,58.77 C85.71,59.69 84.29,59.65 84.42,58.25 C84.74,54.84 86.68,52.16 88.27,50.52 C91.43,47.2 96.07,45.31 100.7,45.32 C105.33,45.3 109.97,47.2 113.14,50.51 C114.73,52.15 116.99,55.81 117,58.36 C117,59.47 115.74,59.77 115.28,58.87 C114.13,56.63 110.57,49.32 100.71,49.32 C90.85,49.32 87.33,56.55 86.18,58.77 Z" fill="#757575"/>
</svg>
